**kern	**text
*clefG2	*
*k[f#c#]	*
*M4/4	*
*MM108	*
=1	=1
1r	.
=2	=2
1r	.
=3	=3
1r	.
=4	=4
1r	.
=5	=5
1r	.
=6	=6
1r	.
=7	=7
1r	.
=8	=8
1r	.
=9	=9
1r	.
=10	=10
1r	.
=11	=11
1r	.
=12	=12
1r	.
=13	=13
1r	.
=14	=14
1r	.
=15	=15
1r	.
=16	=16
1r	.
=17	=17
1r	.
=18	=18
8eL	か
16dL	ぼ
[16eJJ	そ
16eKL]	.
8f#	い
[16eJk	ひ
16eKL]	.
8d	が
16dJk	こ
8eL	こ
8dJ	ろ
=19	=19
8eL	の
16dL	は
[16eJJ	し
16eKL]	.
8f#	み
[16eJk	と
16eLL]	.
16dJJ	も
4.d'	る
=20	=20
8eL	い
16dL	つ
[16eJJ	の
16eKL]	.
8f#	ま
[16eJk	に
16eKL]	.
8d	か
16dJk	も
8eL	え
8dJ	ひ
*clefF4	*
=21	=21
8BL	ろ
16AL	が
[16BJJ	る
16BKL]	.
8d	ね
*clefG2	*
[16dJk	つ
16dKL]	.
[8.c#J	じょ
8c#]	.
8r	.
=22	=22
8eL	わ
16dL	た
[16eJJ	し
16eKL]	.
8f#	の
[16eJk	ちょ
8.eL]	.
16dJk	ふ
8eL	き
8dJ	そ
=23	=23
8eL	く
16dL	に
[16eJJ	と
16eKL]	.
8f#	び
[16eJk	ま
16eLL]	.
16dJJ	わ
4.d'	り
=24	=24
8eL	あ
16dL	な
[16eJJ	た
16eKL]	.
8f#	の
[16eJk	て
16eKL]	.
8d	に
16dJk	り
8eL	ん
8dJ	ぷ
=25	=25
4f#	ん
4b	を
8a#XL	つ
16gL	け
[16f#JJ	た
8f#]	.
8r	.
=26	=26
4g	か
8.gL	ら
[16f#Jk	み
16f#KL]	.
8.eJ	あ
8c#L	う
8dJ	ゆ
=27	=27
8eL	び
16dL	ほ
[16eJJ	ど
16eKL]	.
8f#	い
[16dJk	て
4d_	.
16d]	.
16r	.
16BLL	く
16c#JJ	ち
=28	=28
4.d	び
8d	る
8.c#L	か
[16dJk	ら
8dL]	.
8eJ	し
=29	=29
8c#L	た
16AL	え
[16AJJ	と
2A_	.
8A]	.
8r	.
=30	=30
4g	ゆ
8.gL	る
[16f#Jk	さ
16f#KL]	.
8.gJ	れ
8f#L	な
8c#J	い
=31	=31
8eL	こ
16dL	と
[16dJJ	な
16dKL]	.
8c#	ら
[16dJk	ば
16d]	.
16r	.
8d	な
8eL	お
8f#J	さ
=32	=32
2b	ら
8r	.
8gL	も
8a	え
8bJ	あ
=33	=33
4.b	が
16cc#LL	る
[16cc#JJ	の
8.cc#]	.
16r	.
16r	.
16f#LL	だ
16b	き
16cc#JJ	よ
=34	=34
8ddL	せ
16cc#L	て
[16bJJ	ほ
16bKL]	.
8f#	し
[16f#Jk	い
16f#]	.
16r	.
16r	.
16f#	た
16bKL	し
8cc#	か
[16ddJk	め
=35	=35
16ddKL]	.
8cc#	て
[16bJk	ほ
16bKL]	.
8f#	し
[16f#Jk	い
16f#]	.
16r	.
16r	.
16f#	ま
16bKL	ち
8cc#	が
[16ddJk	い
=36	=36
16ddKL]	.
8cc#	な
[16bJk	ど
16b]	.
16r	.
[8ee	な
8eeL]	.
8dd	い
8cc#	ん
8bJ	だ
=37	=37
4b	と
8r	.
16bLL	お
16bJJ	も
8.a#XL	わ
[16bJk	せ
8bL]	.
8cc#J	て
=38	=38
8ddL	き
16cc#L	す
[16bJJ	を
16bKL]	.
8f#	し
[16f#Jk	て
8f#]	.
16r	.
16f#	ぬ
16bKL	り
8cc#	か
[16ddJk	え
=39	=39
16ddKL]	.
8cc#	て
[16bJk	ほ
16bKL]	.
8f#	し
[16f#Jk	い
16f#]	.
16r	.
16r	.
16f#	み
16bKL	わ
8cc#	く
[16ddJk	の
=40	=40
16ddKL]	.
8cc#	と
[16bJk	き
16b]	.
16r	.
[8ee	に
8eeL]	.
8dd	よ
8cc#	い
8bJ	し
=41	=41
4b	れ
8r	.
16bLL	お
16bJJ	ぼ
8.a#XL	れ
[16bJk	て
8bL]	.
8cc#J	い
=42	=42
8cc#L	た
16bL	い
[16bJJ	の
2.b]	.
=43	=43
1r	.
=44	=44
1r	.
=45	=45
1r	.
=46	=46
8eL	そ
16dL	く
[16eJJ	ば
16eKL]	.
8f#	く
[16eJk	し
16eKL]	.
8d	て
16dJk	も
8eL	お
8dJ	と
=47	=47
8eL	ひ
16dL	つ
[16eJJ	よ
16eKL]	.
8f#	お
[16eJk	と
16eLL]	.
16dJJ	し
4.d'	て
=48	=48
8eL	い
16dL	と
[16eJJ	し
16eKL]	.
8f#	い
[16eJk	な
16eKL]	.
8d	ら
16dJk	しゅ
8eL	う
8dJ	ちゃ
*clefF4	*
=49	=49
8BL	く
16AL	を
[16BJJ	み
16BKL]	.
8d	せ
*clefG2	*
[16dJk	つ
16dKL]	.
8c#	け
[16c#Jk	て
8c#]	.
8r	.
=50	=50
8eL	お
16dL	か
[16eJJ	し
16eKL]	.
8f#	い
[16eJk	の
16eKL]	.
8d	が
16dJk	た
8eL	ま
8dJ	ら
=51	=51
8aL	な
16gL	く
[16f#JJ	す
16f#KL]	.
8g	き
[16f#Jk	に
16f#LL]	.
16dJJ	な
4.d'	る
=52	=52
8eL	い
16dL	け
[16eJJ	る
16eKL]	.
8f#	と
[16eJk	こ
16eKL]	.
8d	ま
[16dJk	で
16d]	.
16r	.
8d	い
=53	=53
4f#	け
4b	ば
8a#XL	い
16gL	い
[16f#JJ	よ
8f#]	.
8r	.
=54	=54
4g	ま
8.gL	よ
[16f#Jk	い
16f#KL]	.
8.eJ	こ
8c#L	ん
8dJ	だ
=55	=55
8eL	こ
16dL	こ
[16eJJ	ろ
16eKL]	.
8f#	な
[16dJk	ら
4d_	.
16d]	.
16r	.
16BLL	か
16c#JJ	ん
=56	=56
4.d	た
8d	ん
8.c#L	に
[16dJk	と
8dL]	.
8eJ	け
=57	=57
8c#L	て
16AL	ゆ
[16AJJ	く
2A_	.
8A]	.
8r	.
=58	=58
4g	や
8.gL	さ
[16f#Jk	し
16f#KL]	.
8.gJ	さ
8f#L	な
8c#J	ん
=59	=59
8eL	て
16dL	か
[16dJJ	ん
16dKL]	.
8c#	じ
[16dJk	る
16d]	.
16r	.
8d	ひ
8eL	ま
8f#J	な
=60	=60
2b	ど
8r	.
8gL	な
8a	い
8bJ	く
=61	=61
4.b	ら
16cc#LL	い
[16cc#JJ	に
8.cc#]	.
16r	.
16r	.
16f#LL	く
16b	り
16cc#JJ	か
=62	=62
8ddL	え
16cc#L	し
[16bJJ	た
16bKL]	.
8f#	の
[16f#Jk	わ
16f#]	.
16r	.
16r	.
16f#	あ
16bKL	の
8cc#	ゆ
[16ddJk	め
=63	=63
16ddKL]	.
8cc#	じゃ
[16bJk	な
16bKL]	.
8f#	く
[16f#Jk	て
16f#]	.
16r	.
16r	.
16f#	ま
16bKL	ぎ
8cc#	れ
[16ddJk	も
=64	=64
16ddKL]	.
8cc#	な
[16bJk	い
16b]	.
16r	.
[8ee	げ
8eeL]	.
8dd	ん
8cc#	じ
8bJ	つ
=65	=65
4b	の
8r	.
16bLL	わ
16bJJ	た
8.a#XL	し
[16bJk	た
8bL]	.
8cc#J	ち
=66	=66
8ddL	ふ
16cc#L	れ
[16bJJ	て
16bKL]	.
8f#	か
[16f#Jk	ら
16f#]	.
16r	.
16r	.
16f#	も
16bKL	ど
8cc#	れ
[16ddJk	な
=67	=67
16ddKL]	.
8cc#	い
[16bJk	と
16bKL]	.
8f#	し
[16f#Jk	る
16f#]	.
16r	.
16r	.
16f#	そ
16bKL	れ
8cc#	で
[16ddJk	い
=68	=68
16ddKL]	.
8cc#	い
[16bJk	の
16b]	.
16r	.
[8ee	だ
8eeL]	.
8dd	れ
8cc#	よ
8bJ	り
=69	=69
4b	も
8r	.
16bLL	た
16bJJ	い
8.a#XL	せ
[16bJk	つ
8bL]	.
8cc#J	な
=70	=70
8cc#L	あ
16bL	な
[16bJJ	た
2.b_	.
=71	=71
2.b]	.
4r	.
=72	=72
1r	.
=73	=73
1r	.
=74	=74
1r	.
=75	=75
1r	.
=76	=76
1r	.
=77	=77
1r	.
=78	=78
4g	よ
8.gL	あ
[16f#Jk	け
16f#KL]	.
8.eJ	が
8c#L	く
8dJ	る
=79	=79
8eL	と
16dL	ふ
[16eJJ	あ
16eKL]	.
8f#	ん
[16dJk	で
4d_	.
16d]	.
16r	.
16BLL	な
16c#JJ	い
=80	=80
4.d	て
8d	し
8.c#L	ま
[16dJk	う
8dL]	.
8eJ	わ
=81	=81
8c#L	た
16AL	し
[16AJJ	に
2A_	.
8A]	.
8r	.
=82	=82
4g	だ
8.gL	い
[16f#Jk	じょ
16f#KL]	.
8.gJ	う
8f#L	ぶ
8c#J	と
=83	=83
8eL	さ
16dL	さ
[16dJJ	や
16dKL]	.
8c#	い
[16dJk	た
16d]	.
16r	.
8d	あ
8eL	な
8f#J	た
=84	=84
2b	も
8r	.
8gL	な
8a	い
8bJ	て
=85	=85
4.b	い
16cc#LL	た
[16cc#JJ	の
8.cc#]	.
16r	.
4r	.
=86	=86
16r	.
16f#LL	だ
16b	き
16cc#JJ	よ
8ddL	せ
16cc#L	て
[16bJJ	ほ
16bKL]	.
8f#	し
[16f#Jk	い
16f#]	.
16r	.
16r	.
16f#	た
=87	=87
16bKL	し
8cc#	か
[16ddJk	め
16ddKL]	.
8cc#	て
[16bJk	ほ
16bKL]	.
8f#	し
[16f#Jk	い
16f#]	.
16r	.
16r	.
16f#	ま
=88	=88
16bKL	ち
8cc#	だ
[16ddJk	い
16ddKL]	.
8cc#	な
[16bJk	ど
16b]	.
16r	.
4ee	な
8dd	い
=89	=89
8cc#L	ん
8bJ	だ
4b	と
8r	.
16bLL	お
16bJJ	も
8.a#XL	わ
[16bJk	せ
=90	=90
8bL]	.
8cc#J	て
8ddL	き
16cc#L	す
[16bJJ	を
16bKL]	.
8f#	し
[16f#Jk	て
16f#]	.
16r	.
16r	.
16f#	ぬ
=91	=91
16bKL	り
8cc#	か
[16ddJk	え
16ddKL]	.
8cc#	て
[16bJk	ほ
16bKL]	.
8f#	し
[16f#Jk	い
16f#]	.
16r	.
16r	.
16f#	み
=92	=92
16bKL	わ
8cc#	く
[16ddJk	の
16ddKL]	.
8cc#	と
[16bJk	き
16b]	.
16r	.
4ee	に
8dd	よ
=93	=93
8cc#L	い
8bJ	し
4b	れ
8r	.
16bLL	お
16bJJ	ぼ
8.a#XL	れ
[16ff#Jk	た
=94	=94
8ff#L]	.
8ee'J	い
8ddL	ひ
16cc#L	き
[16bJJ	よ
16bKL]	.
8f#	せ
[16f#Jk	て
16f#]	.
16r	.
16r	.
16f#	ま
=95	=95
16bKL	ぐ
8cc#	ね
[16ddJk	え
16ddKL]	.
8cc#	と
[16bJk	の
16bKL]	.
8f#	よ
[16f#Jk	に
16f#]	.
16r	.
16r	.
16f#	た
=96	=96
16bKL	と
8cc#	え
[16ddJk	い
16ddKL]	.
8cc#	つ
[16bJk	か
16b]	.
16r	.
4ee	は
8dd	な
=97	=97
8cc#L	れ
8bJ	て
4b	も
8r	.
16bLL	め
16bJJ	ぐ
8.a#XL	り
[16bJk	あ
=98	=98
8bL]	.
8cc#J	う
8ddL	ふ
16cc#L	れ
[16bJJ	て
16bKL]	.
8f#	い
[16f#Jk	て
16f#]	.
16r	.
16r	.
16f#	も
=99	=99
16bKL	ど
8cc#	れ
[16ddJk	な
16ddKL]	.
8cc#	く
[16bJk	て
16bKL]	.
8f#	い
[16f#Jk	い
16f#]	.
16r	.
16r	.
16f#	そ
=100	=100
16bKL	れ
8cc#	で
[16ddJk	い
16ddKL]	.
8cc#	い
[16bJk	の
16b]	.
16r	.
4ee	だ
8dd	れ
=101	=101
8cc#L	よ
8bJ	り
4b	も
8r	.
16bLL	た
16bJJ	い
8.a#XL	せ
[16bJk	つ
=102	=102
8bL]	.
8cc#J	な
8cc#L	あ
16ddL	な
[16bJJ	た
2b_	.
=103	=103
1b_	.
=104	=104
4b]	.
4r	.
2r	.
==	==
*-	*-
